X:123
T: ICH GING MAL UEBER NE BRUECKE
N: K2174
O: Europa, Mitteleuropa, Deutschland, Sachsen
R: Kinder - Lied, Reigen, Tanz - Spiel, Brautwerbung
M: 2/4
L: 1/8
K: F
C | FGAB | c2Az |
B2G2 | F2z
C | FGAB | c2Az |
B2G2 | F2z2 |
BBGG | AAF
C | BBGG | AAF
C | FGAB | c2z
B | AAGG | F2z

@@@ Tune index: 7460
